X: 12
T: Lilting Banshee, The
Z: Sean Perry
S: https://thesession.org/tunes/60#setting50964
R: jig
M: 6/8
L: 1/8
K: Ddor
G,|:A,DD A,DD|EDE C2D|EAA AGE|GED CA,G,|
A,DD A,DD|EDE C2D|EAA AGE|GED D3:|
|:Add dcA|GED C2D|EAA AGE|GAB cBc|
Add dcA|GED C2D|EAA AGE|GED D3:|

